X:18410
T:Waltz from Balfor
C:Chris Parkinson: Out Of His Tree
M:3/4
L:1/8
K:C
c3d cB|c2B2 GB|B2A2 FA|G2E2C2|G,6|\
c3d cB|c2B2 GB|B2A2 FA|G2D2C2|1 B,6:|2 B,4EF||
|:G3A GF|E2C2 EG|D2B,2 DF|FE C2 CE|\
G2 GA GF|E2C2 EG|D2B,2D2|1 C4 EF:|2 C6-|C6||


